admin/src/theme/img/safetyequipment/q.svg

<svg width="32" height="32" viewBox="0 0 32 32" xmlns="http://www.w3.org/2000/svg">
  <g fill="none" fill-rule="evenodd">
    <path d="M16 4.18857143c1.8285714 0 3.3942857.65142857 4.7028571 1.96 1.3085715 1.30857143 1.96 2.87428571 1.96 4.70285717 0 1.8285714-.6571428 3.4285714-1.96 4.7257143C19.3942857 16.8742857 17.8285714 17.52 16 17.52s-3.3942857-.6457143-4.7028571-1.9428571C9.98857143 14.28 9.33714286 12.7085714 9.33714286 10.8514286c0-1.85714289.65142857-3.39428574 1.96000004-4.70285717 1.3085714-1.30857143 2.8742857-1.96 4.7028571-1.96Zm0 .95428571c-1.6 0-2.9542857.56571429-4.0571429 1.69714286C10.84 7.97142857 10.2857143 9.30857143 10.2857143 10.8571429c0 1.5485714.5542857 2.9542857 1.6571428 4.0571428C13.0457143 16.0171429 14.4 16.5714286 16 16.5714286c1.6 0 2.92-.5542857 4.04-1.6571429 1.12-1.1028571 1.6742857-2.4571428 1.6742857-4.0571428 0-1.60000004-.56-2.88571433-1.6742857-4.0171429-1.12-1.13142857-2.4628571-1.69714286-4.04-1.69714286ZM11.24 30.8571429h9.5257143V32H11.24v-1.1428571Zm8.3771429-22.55428576-6.1714286 6.17142856-1.0685714-1.0685714 6.1714285-6.17142859 1.0685715 1.06857143Zm-6.1714286-1.06857143 6.1714286 6.17142859-1.0685715 1.0685714-6.1714285-6.17142856 1.0685714-1.06857143Zm1.9428571 5.29714289h1.2171429L15.9942857 11.92l-.6114286.6114286h.0057143Zm.04 0h1.1428572v4.04h-1.1428572v-4.04Zm0 5.0685714h1.1428572v13.2571429h-1.1428572V17.6Z" fill="#EC0E0E" fill-rule="nonzero"/>
    <path d="M0 0h32v32H0z"/>
  </g>
</svg>

<?xml version="1.0" encoding="UTF-8"?>
<svg width="32px" height="32px" viewBox="0 0 32 32" version="1.1" xmlns="http://www.w3.org/2000/svg" xmlns:xlink="http://www.w3.org/1999/xlink">
    <title>75494B21-288D-428A-BE7F-F009BAECAE25</title>
    <g id="Squat-laskuri" stroke="none" stroke-width="1" fill="none" fill-rule="evenodd">
        <g id="colors_and_typography" transform="translate(-910.000000, -954.000000)">
            <g id="turvalaite_ikonit" transform="translate(718.000000, 906.000000)">
                <g id="erikoisemerkki_valaistu" transform="translate(192.000000, 48.000000)">
                    <path d="M16,4.18857143 C17.8285714,4.18857143 19.3942857,4.84 20.7028571,6.14857143 C22.0114286,7.45714286 22.6628571,9.02285714 22.6628571,10.8514286 C22.6628571,12.68 22.0057143,14.28 20.7028571,15.5771429 C19.3942857,16.8742857 17.8285714,17.52 16,17.52 C14.1714286,17.52 12.6057143,16.8742857 11.2971429,15.5771429 C9.98857143,14.28 9.33714286,12.7085714 9.33714286,10.8514286 C9.33714286,8.99428571 9.98857143,7.45714286 11.2971429,6.14857143 C12.6057143,4.84 14.1714286,4.18857143 16,4.18857143 L16,4.18857143 Z M16,5.14285714 C14.4,5.14285714 13.0457143,5.70857143 11.9428571,6.84 C10.84,7.97142857 10.2857143,9.30857143 10.2857143,10.8571429 C10.2857143,12.4057143 10.84,13.8114286 11.9428571,14.9142857 C13.0457143,16.0171429 14.4,16.5714286 16,16.5714286 C17.6,16.5714286 18.92,16.0171429 20.04,14.9142857 C21.16,13.8114286 21.7142857,12.4571429 21.7142857,10.8571429 C21.7142857,9.25714286 21.1542857,7.97142857 20.04,6.84 C18.92,5.70857143 17.5771429,5.14285714 16,5.14285714 Z M11.24,30.8571429 L20.7657143,30.8571429 L20.7657143,32 L11.24,32 L11.24,30.8571429 Z M19.6171429,8.30285714 L13.4457143,14.4742857 L12.3771429,13.4057143 L18.5485714,7.23428571 L19.6171429,8.30285714 L19.6171429,8.30285714 Z M13.4457143,7.23428571 L19.6171429,13.4057143 L18.5485714,14.4742857 L12.3771429,8.30285714 L13.4457143,7.23428571 L13.4457143,7.23428571 Z M15.3885714,12.5314286 L16.6057143,12.5314286 L15.9942857,11.92 L15.3828571,12.5314286 L15.3885714,12.5314286 Z M15.4285714,12.5314286 L16.5714286,12.5314286 L16.5714286,16.5714286 L15.4285714,16.5714286 L15.4285714,12.5314286 Z M15.4285714,17.6 L16.5714286,17.6 L16.5714286,30.8571429 L15.4285714,30.8571429 L15.4285714,17.6 Z" id="Shape" fill="#EC0E0E" fill-rule="nonzero"></path>
                    <rect id="Rectangle" x="0" y="0" width="32" height="32"></rect>
                </g>
            </g>
        </g>
    </g>
</svg>
